X: 21382
T: CRAMBABMULL
O: German Burschen melody.
Q: "With animation."
%R: march
B: W. Hamilton "Universal Tune-Book" Vol. 2 Glasgow 1846 p.138 #2
S: http://s3-eu-west-1.amazonaws.com/itma.dl.printmaterial/book_pdfs/hamiltonvol2web.pdf
Z: 2016 John Chambers <jc:trillian.mit.edu>
M: 2/4
L: 1/8
K: D
% - - - - - - - - - - - - - - - - - - - - - - - - -
A |\
d2(cB) | A3A | (BA)(Bc) | d2AA |\
BAGF | A2A2 | A3 :: A |\
F>AA>A | B>AA>A | F>AA>A | B>AA>A |\
"_>"d2 "_>"e2 | ({g}"_>"f>e)dd | "_>"e2"_>"c2 | d3 :|
% - - - - - - - - - - - - - - - - - - - - - - - - -

%%sep 1 1 500
%%sep 1 1 500

